!!!OTL: Die Todesbraut Griechischer Text .....
!!!ARE: Europa, Suedosteuropa, Griechenland
!!!YOR: 2, S. 239
!!    1905 gedruckt in Athen
!!!SCT: Q2049L
!!!YEM: Copyright 1995, estate of Helmut Schaffrath.
**kern
*ICvox
*Ivox
!! 4+3 metric grouping
*M7/8
*k[f#]
*G:
{8cc
=1
2cc
4g
8fn
=2
4g
8a-
4b
4a-
=3
[2g
8g]
4r}
=4
{4g
8a-
8a-
4.fn
=5
4g
8a-
8b
8a-
4fn
=6
[2g
8g]
4r}
=7
{4g
8a-
8a-
4.fn
=8
4g
8a-
8b
8a-
4fn
=9
[2g
8g]
8r}
==
!!!AGN: Ballade, Hochzeit, Unfall, Tod
!! Griechische Fassung der Ballade. Pause (Wiederholung) korrigiert.
!!!ONB: ESAC (Essen Associative Code) Database: BALLADE
!!!AMT: irregular
!!!AIN: vox
!!!EED: Helmut Schaffrath
!!!EEV: 1.0
*-
